X:8293
T:A Bagpipe Concerto call'd the Battle of Aghrem
T:or the Football March 
C:anon.
O:Scotland / Ireland
R:misc
F:http://abc.musicaviva.com/tunes/scotland/battle-of-aughrim03.abc
%Posted March 18th 2002 at abcusers by John Walsh
M:2/4
L:1/8
K:C
DDD2 D2D2 DDD2 E2D2|DDD2F2D2 DDD2 G2D2|DDD2 F2D2 DDD2 E2D2|DDD2 GFEF G2C2 E2D2:|
DDD2 GFEF G2D2 F2D2|DDD2 E2C2G2C2 E2D2|DDD2 B2D2 A2D2 F2D2|DDD2 B2D2 G2C2 E2D2:|
DDD2 B2D2 DDD2 F2D2|DDD2 B2D2 DDD2 E2D2|DDD2 B2D2 DDD2 d2D2|DDD2 B2D2 DDD2 E2D2:|
DDD2 dcBc d2D2 F2D2|DDD2 cBAB c2C2 E2D2|d2B2c2A2 B2G2 A2D2|GFEF G2C2 E2D2 DDD2||
d3B d3A d3B d3D|d3B d3A d3F d3D|d3B A2d2 F2d2 G2D2|BdAd GdFd BdAd GdDd||
FdGd FdEd FdGd EdDd|EdFd GdEd EdFd GdDd|EdFd GdEd EdFd GdDd|EdFd GdEd EdFd "_D.C."GdDd||
W:
W:
W:  From Musica Viva - http://www.musicaviva.com
W:  the Internet center for free sheet music downloads.
